X: 14948
T: the Carnival march
C: Gideon Stove
O: Shetland
R: march
S: https://thesession.org/tunes/14948 2020-09-02
R: march, strathspey
M: 4/4
L: 1/8
K: A
e>d |\
c2 B>A c>A c<e | f>d f<g a2 g<f | Te2 a>f e>c B<A | c2 B2 B2 e>d |
c2 B>A c>A c<e | f>d f<g a2 g<f |  e2 a>f e>c d<B | c2 A2 A2 :|
|: e>d |\
c>A G>A F>A E>A | F>A E>A c>A  e>A  | c>e a>f e>c B<A | c2 B2 B2 e>d |
c>A G>A F>A E>A | D>A C>A B,>A A,>A | c>e a>f e>c d<B | c2 A2 A2 :|
